frontend/assets/logo/color-transparent-no-tag.svg

<?xml version="1.0" encoding="UTF-8"?>
<svg version="1.1" viewBox="0 0 2000 702" xmlns="http://www.w3.org/2000/svg">
	<g transform="translate(-1.2121 -1.1726)">
		<svg width="2e3" height="702" data-background-color="#102e44" viewBox="0 0 396 139"
			xmlns="http://www.w3.org/2000/svg" xmlns:xlink="http://www.w3.org/1999/xlink">
			<g transform="translate(.24 .23218)">
				<svg width="395.52" height="138.54" viewBox="0 0 395.52 138.53563018949785">
					<svg width="395.52" height="138.54" viewBox="0 0 665.1322688351936 232.9705653884862">
						<g transform="translate(0 32.198)">
							<svg width="395.52" height="168.57" viewBox="0 0 395.52000000000004 168.5749387760392">
								<svg width="395.52" height="300.57" viewBox="0 0 395.52000000000004 200.5749387760392">
									<svg width="395.52" height="119.36" viewBox="0 0 395.52000000000004 120">
										<g>
											<svg width="395.52" height="119.36" data-palette-color="#ffffff"
												viewBox="2.1911805611129997 -35.55 158.875120440615 47.949999999999996">
												<path class="wordmark-text-0"
													d="m13.38 0.59q-3.1 0-5.14-0.57-2.04-0.56-3.27-1.4t-1.89-1.67q-0.22-0.32-0.39-0.61-0.18-0.3-0.25-0.66-0.1-0.49-0.19-1.28-0.1-0.8-0.03-1.85 0.03-0.44 0.17-0.61 0.17-0.19 0.56-0.29 0.71-0.17 1.85-0.3 1.13-0.14 1.62-0.14 0.51 0 0.83 0.2 0.32 0.19 0.76 0.66 0.49 0.51 1.68 1.3 1.2 0.8 3.69 0.8 2.39 0 3.61-1.01 1.22-1 1.22-2.78 0-0.95-0.57-1.79-0.57-0.85-2.09-1.69-1.51-0.84-4.32-1.77-4.64-1.56-6.69-3.88t-2.05-6.45q0-3.41 1.66-5.71 1.66-2.29 4.59-3.47 2.93-1.17 6.76-1.17 2.96 0 4.9 0.7 1.94 0.69 3.01 1.56 1.08 0.87 1.39 1.41 0.2 0.31 0.26 0.47t0.09 0.43q0.07 0.76 0.05 1.68-0.03 0.93-0.18 2.1-0.07 0.39-0.26 0.54-0.18 0.12-0.54 0.12-2.37 0.05-3.66-0.24-0.52-0.12-0.69-0.25-0.17-0.12-0.44-0.39-0.39-0.46-1.23-1.08-0.84-0.63-2.7-0.63-2.56 0-3.63 1.16-1.08 1.16-1.08 2.6 0 1.71 1.59 2.68 1.58 0.96 5 2.18 2.86 1 4.91 2.18 2.05 1.17 3.14 3 1.08 1.83 1.08 4.83 0 3.74-1.72 6.2-1.72 2.47-4.69 3.68-2.96 1.21-6.72 1.21zm34.18-26.2q3.56 0 5.87 1.6 2.3 1.6 3.44 4.39 1.14 2.8 1.14 6.41 0 3.91-1.34 7.03-1.33 3.13-3.91 4.96-2.59 1.83-6.42 1.83-1.98 0-3.26-0.45-1.29-0.45-2.05-1.08-0.77-0.62-1.21-1.13h-0.1v10.4q0 0.59-0.24 0.9-1.03 1.35-3.01 2.91-0.34 0.24-0.61 0.24-0.29 0-0.61-0.24-1.05-0.81-1.77-1.52-0.72-0.7-1.23-1.39-0.25-0.31-0.25-0.9v-30.1q0-0.59 0.25-0.91 0.51-0.68 1.23-1.39t1.77-1.51q0.32-0.25 0.66-0.25 0.32 0 0.66 0.25 1.03 0.8 1.76 1.54 0.73 0.73 1.29 1.51h0.12q0.42-0.51 1.27-1.24 0.86-0.74 2.43-1.3 1.58-0.56 4.12-0.56zm-3.01 19.99q2.64 0 4.09-1.84 1.46-1.84 1.46-5.33 0-6.59-5.42-6.59-2.3 0-3.4 0.94t-1.56 1.98v5.3q0 2.37 1.22 3.96 1.22 1.58 3.61 1.58zm26.42-16.55v1.81h0.09q1.84-5.08 6.6-5.08 0.61 0 1 0.06t0.53 0.11q0.37 0.12 0.37 0.56v5.89q0 0.75-0.88 0.41-0.29-0.12-0.84-0.25-0.55-0.14-1.53-0.14-2.51 0-3.93 1.84-1.41 1.85-1.41 5.02v10.65q0 0.73-0.31 1.01-0.3 0.28-1.04 0.28h-5.03q-0.73 0-1.03-0.28-0.31-0.28-0.31-1.01v-20.46q0-0.59 0.25-0.91 0.51-0.68 1.23-1.39t1.77-1.51q0.19-0.15 0.39-0.2 0.19-0.05 0.34-0.05 0.34 0 0.68 0.25 2.03 1.59 2.84 2.71 0.22 0.29 0.22 0.68zm24.21 22.78q-6.15 0-9.74-3.27t-3.59-9.74q0-6.64 3.73-9.93 3.72-3.28 9.94-3.28 6.01 0 9.62 3.23 3.62 3.24 3.62 9.54 0 6.57-3.62 10.01-3.61 3.44-9.96 3.44zm0.25-5.91q2.68 0 4.05-1.67t1.37-5.73q0-3.85-1.38-5.43-1.38-1.57-4.09-1.57-2.61 0-4.12 1.69-1.5 1.7-1.5 5.51 0 3.98 1.43 5.59t4.24 1.61zm27.29 5.91q-8.69 0-8.69-10.52l-0.03-12.4q0-0.59 0.25-0.91 1.02-1.34 3-2.9 0.34-0.25 0.61-0.25 0.32 0 0.61 0.25 1.05 0.8 1.77 1.51t1.23 1.39q0.25 0.32 0.25 0.91v11.71q0 5.3 4.2 5.3 2.07 0 3.32-1.45 1.24-1.45 1.24-3.94v-11.62q0-0.59 0.25-0.91 1.02-1.34 3-2.9 0.34-0.25 0.61-0.25 0.32 0 0.61 0.25 1.05 0.8 1.77 1.51t1.23 1.39q0.25 0.32 0.25 0.91v21.19q0 0.46-0.32 0.79t-0.81 0.33h-3.66q-0.39 0-0.69-0.11-0.31-0.11-0.58-0.43l-1.51-1.95h-0.17q-0.39 0.56-1.21 1.29-0.82 0.74-2.37 1.27-1.55 0.54-4.16 0.54zm31.96 0q-8.16 0-8.16-8.47v-11.45h-2.76q-0.73 0-1.01-0.31-0.28-0.3-0.28-1.03v-3.01q0-0.73 0.28-1.03 0.28-0.31 1.01-0.31h2.76v-3.93q0-0.59 0.24-0.9 1.03-1.35 3.01-2.91 0.34-0.24 0.61-0.24 0.29 0 0.58 0.24 1.05 0.81 1.77 1.51 0.72 0.71 1.24 1.4 0.24 0.31 0.24 0.9v3.93h4.32q0.73 0 1.02 0.31 0.28 0.3 0.28 1.03v3.01q0 0.73-0.28 1.03-0.29 0.31-1.02 0.31h-4.32v10.11q0 3.9 2.83 3.9 0.44 0 0.81-0.08 0.37-0.09 0.63-0.19 0.52-0.19 0.72-0.14 0.21 0.05 0.38 0.53l1.42 3.79q0.22 0.61-0.29 0.88-0.37 0.17-1.77 0.64-1.41 0.48-4.26 0.48z"
													fill="#fff" data-fill-palette-color="primary"></path>
											</svg>
										</g>
									</svg>
								</svg>
							</svg>
						</g>
						<g transform="translate(423.7)">
							<svg width="241.43" height="232.97" viewBox="0 0 241.43394346260823 232.9705653884862">
								<svg class="icon-icon-0" width="241.43" height="232.97"
									enable-background="new 0 0 100 100" data-fill-palette-color="accent" version="1.1"
									viewBox="27.861915579507443 28.600000000000005 44.25120988422886 42.699999999999974"
									xml:space="preserve" xmlns="http://www.w3.org/2000/svg"
									xmlns:xlink="http://www.w3.org/1999/xlink">
									<g fill="#116383" data-fill-palette-color="accent">
										<path
											d="m63.9 36.4c-0.5-0.2-1.1 0.1-1.3 0.6-1.3 3.6-4.4 6.2-8.2 6.7-0.5 0.1-0.9 0.6-0.9 1.1 0.1 0.5 0.5 0.9 1 0.9h0.1c4.5-0.6 8.3-3.7 9.8-8 0.3-0.5 0.1-1.1-0.5-1.3z"
											data-fill-palette-color="accent">
										</path>
										<path
											d="m37.3 47c-0.2-0.5-0.8-0.8-1.3-0.6s-0.8 0.8-0.6 1.3c1.5 4.3 5.3 7.4 9.8 8h0.1c0.5 0 0.9-0.4 1-0.9s-0.3-1.1-0.9-1.1c-3.7-0.5-6.8-3.1-8.1-6.7z"
											data-fill-palette-color="accent">
										</path>
										<path
											d="m71.5 65.5c-0.8-0.8-2.1-0.8-2.8 0-2 2-7.4 2.9-16.7-0.2v-0.3-13.9c10.2-0.1 18.4-8.4 18.4-18.7v-1.8c0-1.1-0.9-2-2-2h-1.8c-9.8 0-17.8 7.6-18.6 17.2-3.4-4.4-8.7-7.2-14.7-7.2h-1.8c-1.1 0-2 0.9-2 2v1.8c0 10.2 8.3 18.5 18.5 18.7v3c-10.2-2.5-18.5 0.8-18.9 0.9-1 0.4-1.5 1.6-1.1 2.6s1.6 1.5 2.6 1.1c0.1 0 9-3.5 19.1 0 5.4 1.9 9.5 2.6 12.8 2.6 5 0 7.7-1.7 9.1-3 0.7-0.8 0.7-2-0.1-2.8zm-38-22.8c7.9 0.1 14.4 6.5 14.5 14.5-7.9-0.2-14.4-6.6-14.5-14.5zm32.9-10c-0.1 7.9-6.5 14.4-14.5 14.5 0.2-8 6.6-14.4 14.5-14.5z"
											data-fill-palette-color="accent">
										</path>
									</g>
								</svg>
							</svg>
						</g>
					</svg>
				</svg>
				<rect width="395.52" height="138.54" fill="none" visibility="hidden" />
			</g>
		</svg>
	</g>
</svg>

<svg xmlns="http://www.w3.org/2000/svg" version="1.1" xmlns:xlink="http://www.w3.org/1999/xlink"
        xmlns:svgjs="http://svgjs.dev/svgjs" width="2000" height="702" viewBox="0 0 2000 702">
        <g transform="matrix(1,0,0,1,-1.2121089588277982,-1.1726172912680113)"><svg viewBox="0 0 396 139"
                        data-background-color="#102e44" preserveAspectRatio="xMidYMid meet" height="702" width="2000"
                        xmlns="http://www.w3.org/2000/svg" xmlns:xlink="http://www.w3.org/1999/xlink">
                        <g id="tight-bounds" transform="matrix(1,0,0,1,0.24000301276123537,0.23218490525107427)"><svg
                                        viewBox="0 0 395.52 138.53563018949785" height="138.53563018949785"
                                        width="395.52">
                                        <g><svg viewBox="0 0 665.1322688351936 232.9705653884862"
                                                        height="138.53563018949785" width="395.52">
                                                        <g transform="matrix(1,0,0,1,0,32.197813306223495)"><svg
                                                                        viewBox="0 0 395.52000000000004 168.5749387760392"
                                                                        height="168.5749387760392"
                                                                        width="395.52000000000004">
                                                                        <g id="textblocktransform"><svg
                                                                                        viewBox="0 0 395.52000000000004 200.5749387760392"
                                                                                        height="300.5749387760392"
                                                                                        width="395.52000000000004"
                                                                                        id="textblock">
                                                                                        <g><svg viewBox="0 0 395.52000000000004 120"
                                                                                                        height="119.36124541497371"
                                                                                                        width="395.52000000000004">
                                                                                                        <g
                                                                                                                transform="matrix(1,0,0,1,0,0)">
                                                                                                                <svg width="395.52000000000004"
                                                                                                                        viewBox="2.1911805611129997 -35.55 158.875120440615 47.949999999999996"
                                                                                                                        height="119.36124541497371"
                                                                                                                        data-palette-color="#ffffff">
                                                                                                                        <path d="M13.38 0.59L13.38 0.59Q10.28 0.59 8.24 0.02 6.2-0.54 4.97-1.38 3.74-2.22 3.08-3.05L3.08-3.05Q2.86-3.37 2.69-3.66 2.51-3.96 2.44-4.32L2.44-4.32Q2.34-4.81 2.25-5.6 2.15-6.4 2.22-7.45L2.22-7.45Q2.25-7.89 2.39-8.06L2.39-8.06Q2.56-8.25 2.95-8.35L2.95-8.35Q3.66-8.52 4.8-8.65 5.93-8.79 6.42-8.79L6.42-8.79Q6.93-8.79 7.25-8.59 7.57-8.4 8.01-7.93L8.01-7.93Q8.5-7.42 9.69-6.63 10.89-5.83 13.38-5.83L13.38-5.83Q15.77-5.83 16.99-6.84 18.21-7.84 18.21-9.62L18.21-9.62Q18.21-10.57 17.64-11.41 17.07-12.26 15.55-13.1 14.04-13.94 11.23-14.87L11.23-14.87Q6.59-16.43 4.54-18.75 2.49-21.07 2.49-25.2L2.49-25.2Q2.49-28.61 4.15-30.91 5.81-33.2 8.74-34.38 11.67-35.55 15.5-35.55L15.5-35.55Q18.46-35.55 20.4-34.85 22.34-34.16 23.41-33.29 24.49-32.42 24.8-31.88L24.8-31.88Q25-31.57 25.06-31.41 25.12-31.25 25.15-30.98L25.15-30.98Q25.22-30.22 25.2-29.3 25.17-28.37 25.02-27.2L25.02-27.2Q24.95-26.81 24.76-26.66L24.76-26.66Q24.58-26.54 24.22-26.54L24.22-26.54Q21.85-26.49 20.56-26.78L20.56-26.78Q20.04-26.9 19.87-27.03 19.7-27.15 19.43-27.42L19.43-27.42Q19.04-27.88 18.2-28.5 17.36-29.13 15.5-29.13L15.5-29.13Q12.94-29.13 11.87-27.97 10.79-26.81 10.79-25.37L10.79-25.37Q10.79-23.66 12.38-22.69 13.96-21.73 17.38-20.51L17.38-20.51Q20.24-19.51 22.29-18.33 24.34-17.16 25.43-15.33 26.51-13.5 26.51-10.5L26.51-10.5Q26.51-6.76 24.79-4.3 23.07-1.83 20.1-0.62 17.14 0.59 13.38 0.59ZM47.56-25.61L47.56-25.61Q51.12-25.61 53.43-24.01 55.73-22.41 56.87-19.62 58.01-16.82 58.01-13.21L58.01-13.21Q58.01-9.3 56.67-6.18 55.34-3.05 52.76-1.22 50.17 0.61 46.34 0.61L46.34 0.61Q44.36 0.61 43.08 0.16 41.79-0.29 41.03-0.92 40.26-1.54 39.82-2.05L39.82-2.05 39.72-2.05 39.72 8.35Q39.72 8.94 39.48 9.25L39.48 9.25Q38.45 10.6 36.47 12.16L36.47 12.16Q36.13 12.4 35.86 12.4L35.86 12.4Q35.57 12.4 35.25 12.16L35.25 12.16Q34.2 11.35 33.48 10.64 32.76 9.94 32.25 9.25L32.25 9.25Q32 8.94 32 8.35L32 8.35 32-21.75Q32-22.34 32.25-22.66L32.25-22.66Q32.76-23.34 33.48-24.05 34.2-24.76 35.25-25.56L35.25-25.56Q35.57-25.81 35.91-25.81L35.91-25.81Q36.23-25.81 36.57-25.56L36.57-25.56Q37.6-24.76 38.33-24.02 39.06-23.29 39.62-22.51L39.62-22.51 39.74-22.51Q40.16-23.02 41.01-23.75 41.87-24.49 43.44-25.05 45.02-25.61 47.56-25.61ZM44.55-5.62L44.55-5.62Q47.19-5.62 48.64-7.46 50.1-9.3 50.1-12.79L50.1-12.79Q50.1-19.38 44.68-19.38L44.68-19.38Q42.38-19.38 41.28-18.44 40.18-17.5 39.72-16.46L39.72-16.46 39.72-11.16Q39.72-8.79 40.94-7.2 42.16-5.62 44.55-5.62ZM70.97-22.17L70.97-20.36 71.06-20.36Q72.9-25.44 77.66-25.44L77.66-25.44Q78.27-25.44 78.66-25.38 79.05-25.32 79.19-25.27L79.19-25.27Q79.56-25.15 79.56-24.71L79.56-24.71 79.56-18.82Q79.56-18.07 78.68-18.41L78.68-18.41Q78.39-18.53 77.84-18.66 77.29-18.8 76.31-18.8L76.31-18.8Q73.8-18.8 72.38-16.96 70.97-15.11 70.97-11.94L70.97-11.94 70.97-1.29Q70.97-0.56 70.66-0.28 70.36 0 69.62 0L69.62 0 64.59 0Q63.86 0 63.56-0.28 63.25-0.56 63.25-1.29L63.25-1.29 63.25-21.75Q63.25-22.34 63.5-22.66L63.5-22.66Q64.01-23.34 64.73-24.05 65.45-24.76 66.5-25.56L66.5-25.56Q66.69-25.71 66.89-25.76 67.08-25.81 67.23-25.81L67.23-25.81Q67.57-25.81 67.91-25.56L67.91-25.56Q69.94-23.97 70.75-22.85L70.75-22.85Q70.97-22.56 70.97-22.17L70.97-22.17ZM95.18 0.61L95.18 0.61Q89.03 0.61 85.44-2.66 81.85-5.93 81.85-12.4L81.85-12.4Q81.85-19.04 85.58-22.33 89.3-25.61 95.52-25.61L95.52-25.61Q101.53-25.61 105.14-22.38 108.76-19.14 108.76-12.84L108.76-12.84Q108.76-6.27 105.14-2.83 101.53 0.61 95.18 0.61ZM95.43-5.3L95.43-5.3Q98.11-5.3 99.48-6.97 100.85-8.64 100.85-12.7L100.85-12.7Q100.85-16.55 99.47-18.13 98.09-19.7 95.38-19.7L95.38-19.7Q92.77-19.7 91.26-18.01 89.76-16.31 89.76-12.5L89.76-12.5Q89.76-8.52 91.19-6.91 92.62-5.3 95.43-5.3ZM122.72 0.61L122.72 0.61Q114.03 0.61 114.03-9.91L114.03-9.91 114-22.31Q114-22.9 114.25-23.22L114.25-23.22Q115.27-24.56 117.25-26.12L117.25-26.12Q117.59-26.37 117.86-26.37L117.86-26.37Q118.18-26.37 118.47-26.12L118.47-26.12Q119.52-25.32 120.24-24.61 120.96-23.9 121.47-23.22L121.47-23.22Q121.72-22.9 121.72-22.31L121.72-22.31 121.72-10.6Q121.72-5.3 125.92-5.3L125.92-5.3Q127.99-5.3 129.24-6.75 130.48-8.2 130.48-10.69L130.48-10.69 130.48-22.31Q130.48-22.9 130.73-23.22L130.73-23.22Q131.75-24.56 133.73-26.12L133.73-26.12Q134.07-26.37 134.34-26.37L134.34-26.37Q134.66-26.37 134.95-26.12L134.95-26.12Q136-25.32 136.72-24.61 137.44-23.9 137.95-23.22L137.95-23.22Q138.2-22.9 138.2-22.31L138.2-22.31 138.2-1.12Q138.2-0.66 137.88-0.33 137.56 0 137.07 0L137.07 0 133.41 0Q133.02 0 132.72-0.11 132.41-0.22 132.14-0.54L132.14-0.54 130.63-2.49 130.46-2.49Q130.07-1.93 129.25-1.2 128.43-0.46 126.88 0.07 125.33 0.61 122.72 0.61ZM154.68 0.61L154.68 0.61Q146.52 0.61 146.52-7.86L146.52-7.86 146.52-19.31 143.76-19.31Q143.03-19.31 142.75-19.62 142.47-19.92 142.47-20.65L142.47-20.65 142.47-23.66Q142.47-24.39 142.75-24.69 143.03-25 143.76-25L143.76-25 146.52-25 146.52-28.93Q146.52-29.52 146.76-29.83L146.76-29.83Q147.79-31.18 149.77-32.74L149.77-32.74Q150.11-32.98 150.38-32.98L150.38-32.98Q150.67-32.98 150.96-32.74L150.96-32.74Q152.01-31.93 152.73-31.23 153.45-30.52 153.97-29.83L153.97-29.83Q154.21-29.52 154.21-28.93L154.21-28.93 154.21-25 158.53-25Q159.26-25 159.55-24.69 159.83-24.39 159.83-23.66L159.83-23.66 159.83-20.65Q159.83-19.92 159.55-19.62 159.26-19.31 158.53-19.31L158.53-19.31 154.21-19.31 154.21-9.2Q154.21-5.3 157.04-5.3L157.04-5.3Q157.48-5.3 157.85-5.38 158.22-5.47 158.48-5.57L158.48-5.57Q159-5.76 159.2-5.71 159.41-5.66 159.58-5.18L159.58-5.18 161-1.39Q161.22-0.78 160.71-0.51L160.71-0.51Q160.34-0.34 158.94 0.13 157.53 0.61 154.68 0.61Z"
                                                                                                                                opacity="1"
                                                                                                                                transform="matrix(1,0,0,1,0,0)"
                                                                                                                                fill="#ffffff"
                                                                                                                                class="wordmark-text-0"
                                                                                                                                data-fill-palette-color="primary"
                                                                                                                                id="text-0">
                                                                                                                        </path>
                                                                                                                </svg>
                                                                                                        </g>
                                                                                                </svg></g>
                                                                                </svg></g>
                                                                </svg></g>
                                                        <g transform="matrix(1,0,0,1,423.6983253725854,0)"><svg
                                                                        viewBox="0 0 241.43394346260823 232.9705653884862"
                                                                        height="232.9705653884862"
                                                                        width="241.43394346260823">
                                                                        <g><svg xmlns="http://www.w3.org/2000/svg"
                                                                                        xmlns:xlink="http://www.w3.org/1999/xlink"
                                                                                        version="1.1" x="0" y="0"
                                                                                        viewBox="27.861915579507443 28.600000000000005 44.25120988422886 42.699999999999974"
                                                                                        enable-background="new 0 0 100 100"
                                                                                        xml:space="preserve"
                                                                                        height="232.9705653884862"
                                                                                        width="241.43394346260823"
                                                                                        class="icon-icon-0"
                                                                                        data-fill-palette-color="accent"
                                                                                        id="icon-0">
                                                                                        <g fill="#116383"
                                                                                                data-fill-palette-color="accent">
                                                                                                <path d="M63.9 36.4c-0.5-0.2-1.1 0.1-1.3 0.6-1.3 3.6-4.4 6.2-8.2 6.7-0.5 0.1-0.9 0.6-0.9 1.1 0.1 0.5 0.5 0.9 1 0.9 0 0 0.1 0 0.1 0 4.5-0.6 8.3-3.7 9.8-8C64.7 37.2 64.5 36.6 63.9 36.4z"
                                                                                                        fill="#116383"
                                                                                                        data-fill-palette-color="accent">
                                                                                                </path>
                                                                                                <path d="M37.3 47c-0.2-0.5-0.8-0.8-1.3-0.6-0.5 0.2-0.8 0.8-0.6 1.3 1.5 4.3 5.3 7.4 9.8 8 0 0 0.1 0 0.1 0 0.5 0 0.9-0.4 1-0.9 0.1-0.5-0.3-1.1-0.9-1.1C41.7 53.2 38.6 50.6 37.3 47z"
                                                                                                        fill="#116383"
                                                                                                        data-fill-palette-color="accent">
                                                                                                </path>
                                                                                                <path d="M71.5 65.5c-0.8-0.8-2.1-0.8-2.8 0-2 2-7.4 2.9-16.7-0.2 0-0.1 0-0.2 0-0.3v-5.9-1.8-6.2c10.2-0.1 18.4-8.4 18.4-18.7v-1.8c0-1.1-0.9-2-2-2h-1.8c-9.8 0-17.8 7.6-18.6 17.2-3.4-4.4-8.7-7.2-14.7-7.2h-1.8c-1.1 0-2 0.9-2 2v1.8c0 10.2 8.3 18.5 18.5 18.7v3c-10.2-2.5-18.5 0.8-18.9 0.9-1 0.4-1.5 1.6-1.1 2.6 0.4 1 1.6 1.5 2.6 1.1 0.1 0 9-3.5 19.1 0 5.4 1.9 9.5 2.6 12.8 2.6 5 0 7.7-1.7 9.1-3C72.3 67.5 72.3 66.3 71.5 65.5zM33.5 42.7c7.9 0.1 14.4 6.5 14.5 14.5C40.1 57 33.6 50.6 33.5 42.7zM66.4 32.7c-0.1 7.9-6.5 14.4-14.5 14.5C52.1 39.2 58.5 32.8 66.4 32.7z"
                                                                                                        fill="#116383"
                                                                                                        data-fill-palette-color="accent">
                                                                                                </path>
                                                                                        </g>
                                                                                </svg></g>
                                                                </svg></g>
                                                </svg></g>
                                        <defs></defs>
                                </svg>
                                <rect width="395.52" height="138.53563018949785" fill="none" stroke="none"
                                        visibility="hidden"></rect>
                        </g>
                </svg></g>
</svg>
